X:1
T:Is It Not Wonderful?
T:Is It Not Wonderful?
T:Elisha Albright Hoffman
T:Elisha Albright Hoffman, 1899
T:Public Domain Courtesy of the Cyber Hymnal™
T:Public Domain Courtesy of the Cyber Hymnal™
C:Elisha Albright Hoffman
Z:Public Domain
Z:Courtesy of the Cyber Hymnal™
%%score ( 1 2 ) ( 3 4 )
L:1/8
Q:1/4=100
M:6/8
K:F
V:1 treble 
V:2 treble 
V:3 bass 
V:4 bass 
V:1
 C>[CF][CA] [CG]>[CF][CE] | [CF]3- [CF]2 z | F>[FA][Fc] [Ac]>[GB][FA] | [EG]3- [EG]2 z | %4
w: 1.~Won- drous it seem- eth to|me *|Je- sus so gra- cious should|be, *|
w: 2.~Heart of mine nev- er could|know *|Je- sus such peace could be-|stow, *|
w: 3.~Once I was full of all|sin, *|Now thro’ the blood I am|clean; *|
w: 4.~He doth my new heart con-|trol, *|Cleans- ing and keep- ing me|whole, *|
 [EG]>[FA][GB] [GB]2 [EG] | F>[FG][FA] [FA]2 [CF] | C>[CF][CA] [CG]>[CF][CE] | [CF]3- [CF]2 z |: %8
w: Mer- cy re- veal- ing,|com- fort- ing, heal- ing,|Bless- ing a sin- ner like|me. *|
w: Till the dear Sav- ior|showed me His fa- vor,|Cleansed my heart whit- er than|snow. *|
w: Will- ing to save me,|par- don He gave me,|And I am hap- py with-|in. *|
w: Ban- ish- ing sad- ness,|with joy and glad- ness|Fill- ing and thrill- ing my|soul. *|
"^Refrain" [Fc]>[Fc][Fc] [FA]>[FG]F | [^CA]>[CA][CA] [DG]>[DF][B,D] |1 [A,C]>[CF][CF] F>[FG][FA] | %11
w: |||
w: Is it not won- der- ful,|is it not won- der- ful|Je- sus so gra- cious should|
w: Yes, it is won- der- ful,|strange and so won- der- ful|~ ~ ~ ~ ~ ~|
w: |||
 c3- [Gc]2 z :|2 [A,C]>[CF][FA] [CG]>[CF][CE] || F3- [CF]2 z |] %14
w: |||
w: be? *|||
w: ~ That|* He should par- don and|save en|
w: |||
V:2
 C3/2 x9/2 | x6 | F3/2 x9/2 | x6 | x6 | F3/2 x9/2 | C3/2 x9/2 | x6 |: x5 F | x6 |1 x3 F3/2 x3/2 | %11
 E>EF x3 :|2 x6 || C>CD x3 |] %14
V:3
 [F,A,]>[F,A,][F,C] [C,B,]>[C,A,][C,G,] | [F,A,]3- [F,A,]2 z | %2
 [F,A,]>[F,C][F,A,] [F,C]>[F,C][F,C] | [C,C]3- [C,C]2 z | [C,C]>[C,C][C,C] [C,C]2 [C,C] | %5
 [F,A,]>[F,B,][F,C] [F,C]2 [F,A,] | [F,A,]>[F,A,][F,C] [C,B,]>[C,A,][C,G,] | [F,A,]3- [F,A,]2 z |: %8
 [F,A,]>[F,A,][F,A,] [F,C]>[F,B,][F,A,] | [A,,E,]>[A,,E,][A,,E,] [B,,D,]>[B,,D,][B,,F,] |1 %10
 F,>[F,A,][F,A,] [F,A,]>[F,B,][F,C] | (C>G,A,) [C,B,]2 z :|2 %12
 [C,F,]>[C,A,][C,C] [C,B,]>[C,A,][C,G,] || A,>A,B, [F,A,]2 z |] %14
V:4
 x6 | x6 | x6 | x6 | x6 | x6 | x6 | x6 |: x6 | x6 |1 F,3/2 x9/2 | C,3- x3 :|2 x6 || F,3- x3 |] %14

